lib/healthicons/icons/solid/diagnostics/malaria_pf_microscope.svg

<svg fill="none" height="48" viewBox="0 0 48 48" width="48" xmlns="http://www.w3.org/2000/svg"><path clip-rule="evenodd" d="m44 24c0 11.0457-8.9543 20-20 20s-20-8.9543-20-20 8.9543-20 20-20 20 8.9543 20 20zm-26.6086-3.5389c-3.0717 2.3738-6.5185 3.0602-7.69863 1.5331-1.18014-1.5271.35333-4.6895 3.42503-7.0632 3.0717-2.3738 6.5185-3.0602 7.6987-1.5331 1.1801 1.5271-.3533 4.6894-3.4251 7.0632zm18.1602 13.6261c.9866-1.634-.878-4.5672-4.1646-6.5517-3.2866-1.9844-6.7507-2.2686-7.7372-.6346-.9866 1.6339.8779 4.5672 4.1645 6.5516 3.2866 1.9845 6.7507 2.2686 7.7373.6347zm-3.1461-18.3985c1.6458 3.5183 1.5621 7.0338-.1871 7.852-1.7491.8182-4.5013-1.3706-6.1471-4.889-1.6458-3.5183-1.5621-7.0338.1871-7.852 1.7491-.8182 4.5013 1.3707 6.1471 4.889zm-11.8022 22.9619c1.7645-.8869 1.7485-4.4831-.0356-8.0322-1.7841-3.549-4.6607-5.7071-6.4252-4.8201-1.7644.887-1.7485 4.4831.0356 8.0322 1.7841 3.549 4.6608 5.7071 6.4252 4.8201zm-.6-23.8986c0 .5523-.4477 1-1 1s-1-.4477-1-1c0-.5522.4477-1 1-1s1 .4478 1 1zm-3.4803.3858c.2761 0 .5-.2239.5-.5 0-.2762-.2239-.5-.5-.5-.2762 0-.5.2238-.5.5 0 .2761.2238.5.5.5zm2.0678 2.0205c0 .2762-.2239.5-.5.5s-.5-.2238-.5-.5c0-.2761.2239-.5.5-.5s.5.2239.5.5zm6.9669 12.0403c.5523 0 1-.4477 1-1 0-.5522-.4477-1-1-1s-1 .4478-1 1c0 .5523.4477 1 1 1zm3.3194-1.0945c0 .2503-.2028.4531-.4531.4531-.2502 0-.4531-.2028-.4531-.4531 0-.2502.2029-.4531.4531-.4531.2503 0 .4531.2029.4531.4531zm-1.7845-13.9432c.5523 0 1-.4477 1-1s-.4477-1-1-1-1 .4477-1 1 .4477 1 1 1zm3.4.7c0 .3866-.3134.7-.7.7s-.7-.3134-.7-.7.3134-.7.7-.7.7.3134.7.7zm-15.434 15.7866c.5523 0 1-.4477 1-1 0-.5522-.4477-1-1-1s-1 .4478-1 1c0 .5523.4477 1 1 1zm.6289-3.2122c0 .2502-.2028.4531-.4531.4531-.2502 0-.4531-.2029-.4531-.4531 0-.2503.2029-.4532.4531-.4532.2503 0 .4531.2029.4531.4532zm2.0443 2.7269c.3866 0 .7-.3134.7-.7s-.3134-.7-.7-.7-.7.3134-.7.7.3134.7.7.7z" fill="#333" fill-rule="evenodd"/></svg>

<svg width="48" height="48" viewBox="0 0 48 48" fill="none" xmlns="http://www.w3.org/2000/svg">
<path d="M20.0033 14.752C20.0033 15.3043 19.5556 15.752 19.0033 15.752C18.451 15.752 18.0033 15.3043 18.0033 14.752C18.0033 14.1998 18.451 13.752 19.0033 13.752C19.5556 13.752 20.0033 14.1998 20.0033 14.752Z" fill="#333333"/>
<path d="M16.523 15.1378C16.7991 15.1378 17.023 14.9139 17.023 14.6378C17.023 14.3616 16.7991 14.1378 16.523 14.1378C16.2468 14.1378 16.023 14.3616 16.023 14.6378C16.023 14.9139 16.2468 15.1378 16.523 15.1378Z" fill="#333333"/>
<path d="M18.5908 17.1583C18.5908 17.4345 18.3669 17.6583 18.0908 17.6583C17.8147 17.6583 17.5908 17.4345 17.5908 17.1583C17.5908 16.8822 17.8147 16.6583 18.0908 16.6583C18.3669 16.6583 18.5908 16.8822 18.5908 17.1583Z" fill="#333333"/>
<path d="M25.5577 29.1986C26.11 29.1986 26.5577 28.7509 26.5577 28.1986C26.5577 27.6464 26.11 27.1986 25.5577 27.1986C25.0054 27.1986 24.5577 27.6464 24.5577 28.1986C24.5577 28.7509 25.0054 29.1986 25.5577 29.1986Z" fill="#333333"/>
<path d="M28.8771 28.1041C28.8771 28.3544 28.6743 28.5572 28.424 28.5572C28.1738 28.5572 27.9709 28.3544 27.9709 28.1041C27.9709 27.8539 28.1738 27.651 28.424 27.651C28.6743 27.651 28.8771 27.8539 28.8771 28.1041Z" fill="#333333"/>
<path d="M27.0926 14.1609C27.6449 14.1609 28.0926 13.7132 28.0926 13.1609C28.0926 12.6086 27.6449 12.1609 27.0926 12.1609C26.5403 12.1609 26.0926 12.6086 26.0926 13.1609C26.0926 13.7132 26.5403 14.1609 27.0926 14.1609Z" fill="#333333"/>
<path d="M30.4926 14.8609C30.4926 15.2475 30.1792 15.5609 29.7926 15.5609C29.406 15.5609 29.0926 15.2475 29.0926 14.8609C29.0926 14.4743 29.406 14.1609 29.7926 14.1609C30.1792 14.1609 30.4926 14.4743 30.4926 14.8609Z" fill="#333333"/>
<path d="M15.0586 30.6475C15.6109 30.6475 16.0586 30.1998 16.0586 29.6475C16.0586 29.0953 15.6109 28.6475 15.0586 28.6475C14.5063 28.6475 14.0586 29.0953 14.0586 29.6475C14.0586 30.1998 14.5063 30.6475 15.0586 30.6475Z" fill="#333333"/>
<path d="M15.6875 27.4353C15.6875 27.6855 15.4847 27.8884 15.2344 27.8884C14.9842 27.8884 14.7813 27.6855 14.7813 27.4353C14.7813 27.185 14.9842 26.9821 15.2344 26.9821C15.4847 26.9821 15.6875 27.185 15.6875 27.4353Z" fill="#333333"/>
<path d="M17.7318 30.1622C18.1184 30.1622 18.4318 29.8488 18.4318 29.4622C18.4318 29.0756 18.1184 28.7622 17.7318 28.7622C17.3452 28.7622 17.0318 29.0756 17.0318 29.4622C17.0318 29.8488 17.3452 30.1622 17.7318 30.1622Z" fill="#333333"/>
<path fill-rule="evenodd" clip-rule="evenodd" d="M44 24C44 35.0457 35.0457 44 24 44C12.9543 44 4 35.0457 4 24C4 12.9543 12.9543 4 24 4C35.0457 4 44 12.9543 44 24ZM17.3914 20.4611C14.3197 22.8349 10.8729 23.5213 9.69277 21.9942C8.51263 20.4671 10.0461 17.3047 13.1178 14.931C16.1895 12.5572 19.6363 11.8708 20.8165 13.3979C21.9966 14.925 20.4632 18.0873 17.3914 20.4611ZM35.5516 34.0872C36.5382 32.4532 34.6736 29.52 31.387 27.5355C28.1004 25.5511 24.6363 25.2669 23.6498 26.9009C22.6632 28.5348 24.5277 31.4681 27.8143 33.4525C31.1009 35.437 34.565 35.7211 35.5516 34.0872ZM32.4055 15.6887C34.0513 19.207 33.9676 22.7225 32.2184 23.5407C30.4693 24.3589 27.7171 22.1701 26.0713 18.6517C24.4255 15.1334 24.5092 11.6179 26.2584 10.7997C28.0075 9.9815 30.7597 12.1704 32.4055 15.6887ZM20.6033 38.6506C22.3678 37.7637 22.3518 34.1675 20.5677 30.6184C18.7836 27.0694 15.907 24.9113 14.1425 25.7983C12.3781 26.6853 12.394 30.2814 14.1781 33.8305C15.9622 37.3795 18.8389 39.5376 20.6033 38.6506Z" fill="#333333"/>
</svg>
